X:86
T:Johnny Loves Molly
R:slip jig
D:Niall & Cillian Vallely: Callan Bridge
Z:hn-slipjig-86
M:9/8
L:1/8
K:D
~f3 ged cAA | fef gec d2e | fef gec dfd | cAF ABc d2e :|
|: cAA BGA FDd | cAF ABc ded | cAA BGA FDd | cAF ABc d2e :|

